!!!COM: Bach, Johann Sebastian
!!!CDT: 1685/3//-1750/7/28/
!!!OTL@@DE: Sei Lob und Ehr' dem hoechsten Gut
!!!AGN: 4-Part Chorale
!!!SCT: BH 248
!!!SCT: BWV 117
**harm	**root	**kern	**kern	**kern	**kern
!	!	!bass	!tenor	!alto	!soprno
*	*Iorgan	*Iorgan	*Iorgan	*Iorgan	*Iorgan
*M4/4	*M4/4	*M4/4	*M4/4	*M4/4	*M4/4
*met(c)	*met(c)	*met(c)	*met(c)	*met(c)	*met(c)
*MM60	*MM60	*MM60	*MM60	*MM60	*MM60
*k[b-e-a-d-]	*k[b-e-a-d-]	*k[b-e-a-d-]	*k[b-e-a-d-]	*k[b-e-a-d-]	*k[b-e-a-d-]
*A-:	*A-:	*A-:	*A-:	*A-:	*A-:
*>[A,A,B]	*>[A,A,B]	*>[A,A,B]	*>[A,A,B]	*>[A,A,B]	*>[A,A,B]
*>A	*>A	*>A	*>A	*>A	*>A
Vb	4DD	4G	8e-	4b-	4ee-
.	.	.	8d-	.	.
=1	=1	=1	=1	=1	=1
I	4GG	4A-	4c	4a-	4ee-
V	4DD	4E-	4B-	8a-	4ee-
.	.	.	.	8g	.
I	4GG	4AA-	4c	4a-	8ee-
.	.	.	.	.	8ff
-VIIb	8FF	8BB-	4B-	8d-	4gg-
viio7/IV	8BB	8C	.	8e-	.
=2	=2	=2	=2	=2	=2
I/IV	4CC	4D-	8A-	8.f	4ff
.	.	.	8d-	.	.
.	.	.	.	16g-	.
V/IV	4GG	4AA-	8d-	4a-	4ee-
.	.	.	8c	.	.
I/IV;	4CC;	4D-;	4f;	4a-;	4dd-;
V	4DD	4G	4e-	4b-	4ee-
=3	=3	=3	=3	=3	=3
I	4GG	4.A-	8e-	4a-	8cc
.	.	.	8d-	.	8b-
I	8GG	.	8c	4e-	8a-
Vb	8DD	8G	8B-	.	8b-
vi	4EE	8F	4A-	8a-	4cc
.	.	8G	.	8g	.
V7d/V	4AA	8A-	4B-	4f	4dd
.	.	8B-	.	.	.
=4	=4	=4	=4	=4	=4
Vb	8DD	8G	8B-	8b-	4ee-
V	8DD	8E-	4e-	8g	.
V7/V	4AA	4B-	.	4a-	4ff
.	.	.	8d	.	.
V;	4DD;	4E-;	4e-;	4g;	4ee-;
=:|!	=:|!	=:|!	=:|!	=:|!	=:|!
*>B	*>B	*>B	*>B	*>B	*>B
I	4GG	8A-	4e-	4cc	4ee-
.	.	8B-	.	.	.
=5	=5	=5	=5	=5	=5
Ib	4GG	8c	8e-	4cc	4aa-
.	.	8d	8f	.	.
V	4DD	4e-	8g	8b-	4gg
.	.	.	8a-	8cc	.
V/V	4AA	4B-	8b-	4dd	4ff
.	.	.	8a-	.	.
Vb/iii	4FF#	4B	8g	4dd	4gg
.	.	.	8f	.	.
!!linebreak: 2
=6	=6	=6	=6	=6	=6
Ib	4GG	8c	4e-	4ee-	8aa-
.	.	8A-	.	.	8gg
V/V	4AA	4B-	4d	8b-	4ff
.	.	.	.	8a-	.
V;	4DD;	4E-;	4B-;	4g;	4ee-;
I	4GG	8A-	4c	4a-	4ee-
.	.	8G	.	.	.
=7	=7	=7	=7	=7	=7
vi	4EE	8F	8c	4a-	4aa-
.	.	8E-	8d-	.	.
Ib	4GG	8D-	4e-	4a-	4ee-
.	.	8C	.	.	.
IV	4CC	8D-	4d-	4a-	4ff
.	.	8E-	.	.	.
vi	4EE	4F	8A-	4a-	8cc
.	.	.	8f	.	8dd-
=8	=8	=8	=8	=8	=8
Vb	8DD	8G	8e-	8b-	4ee-
viio/V/V	8GG#	8A	8c	8cc	.
V/V	4AA	4B-	8d-	8f	4dd-
.	.	.	16f	8b-	.
.	.	.	16e	.	.
VI;	4EE;	4F;	4f;	4a;	4cc;
I	4GG	4A-	4e-	4a-	4cc
=9	=9	=9	=9	=9	=9
Vb	4DD	4G	4e-	4b-	8b-
.	.	.	.	.	8cc
IVb	8CC	8F	4f	8a-	4dd-
viio7	8FF#	8G	.	8b-	.
I	4GG	4A-	4e-	8cc	4cc
.	.	.	.	8a-	.
iib	4AA	4D-	8d-	4f	4b-
.	.	.	8c	.	.
=10	=10	=10	=10	=10	=10
Vb/V	4AA	4D	2B-	4f	4f
V	4DD	4E-	.	4e-	4g
I;	4GG;	4AA-;	4c;	4e-;	4a-;
==	==	==	==	==	==
*-	*-	*-	*-	*-	*-
!!!ONB: Near duplicate with erk354.krn
!!chor2scor: -l 2 -s 0.6 -o %b.pmx
!!!YEC: Copyright 1994, David Huron
!!!YEC: Changes/Additions 2001 by Craig Stuart Sapp
!!!YEN: United States of America
!!!SMA: 371 Bach Chorales, edited by Ludwig Erk, C.F. Peters
!!!PDT: 1850, 1865
!!!ONB: Harmony and Root analysis done manually 
